X:4
%%pagewidth 660pt
T:Robin Hood and the Bishop of Hereford
M:C
L:1/8
K:C
%%score 1 2
V:1 clef-treble
V:2 clef-bass octave=-1
[V:1]G2|[Ec]2 cc c2 [CG]2|[CA]2 GF E2 [CG]2|[CA]2A2 [B,D]2EF|
w:O some they will talk of brave Ro-bin Hood, And some of ba-rons*
[V:2]G2|[Cc]6E2|F2ED C2E2|F4 G4|
[V:1][EG]6G2|[CE]2DC [CG]GG>G|[CA]2[Fd]c [DB]2AG|[Cc]2[Ad]2[Gce]2[FBd]2|[Ec]6||
w:bold; But I'll tell you how he serv'd the Bish-op of Hereford,* And robb'd him of his gold.
[V:2]C2EG c2z2|C4 E4|F4 G4|A2F2 G2G,2|C6||

